X:385
T:Rondo by Mr.Hook. RH.385
R:rondo
S:Rev.R.Harrison’s MS,c1815,Cumbria
N:i.e. James Hook.
N:I think the last 2 notes are intended to be an option
N:for going back to re-start the tune. PJH.
O:England
A:Temple Sowerby,Cumbria
Z:vmp.Simon Wilson. Review PJH, 2008.
M:6/8
L:1/8
Q:3/8=120
K:G
BAB GAB|c2c cde|d2e dcB|ABc dBG|\
BAB GAB|c2c cde|dgG AGA|G6||!
g2g gfe|d2d dcB|edc BAG|FAG FED|\
g2g gfe|d2d dcB|edc BAG|B3 A3||!
K:Bb
d2b ag^f|g6|d2b ag^f|g6|\
ege dgd|cgc BgB|ABc BAG|{c}^d6|!
d2b ag^f|g6|d2b ag^f|g6|\
ege dgd|cgc BgB|ABc BAG|d6 {^c}{=c}|]

